X: 5803
T: Caledon Line, The
R: jig
M: 6/8
K: Gmajor
E|:"G"DGG GFD|"D"DCA, DCA,|"G"DGG GFD|"D"DCA, "G"G,A,G,|
"G"DGG GFD|"D"DCA, DCA,|"G"DGG GFD|"D"DCA, "G"G,3:|
|:"D"FDD "G"GDD|"D"AGF GFD|"D"FDD "G"GDD|"D"GFD "G"CA,G,|
"D"FDD "G"GDD|"D"AGF GFD|"D"FDD "G"FDG|"D"GFD "G"CA,G,:|
|:"G"Bcd cBG|DED "D"DEF|"G"GDD "C"ECC|"G"DGG "D"FGA|
Bcd cBG|DED DEF|~G3 GFD|CA,D G,3:|

